src/pos-icons/keg.svg

<svg height="24" viewBox="0 0 24 24" width="24" xmlns="http://www.w3.org/2000/svg"><path d="m5 22v-2h1v-4h-1v-2h1v-3h-1v-4h6v-4h-1v-1h1 2 1v1h-1v4h6v4h-1v3h1v2h-1v4h1v2zm12-13a1 1 0 0 0 -1-1h-2a1 1 0 0 0 -1 1 1 1 0 0 0 1 1h2a1 1 0 0 0 1-1z"/></svg>

<?xml version="1.0" encoding="UTF-8"?><!DOCTYPE svg PUBLIC "-//W3C//DTD SVG 1.1//EN" "http://www.w3.org/Graphics/SVG/1.1/DTD/svg11.dtd"><svg xmlns="http://www.w3.org/2000/svg" xmlns:xlink="http://www.w3.org/1999/xlink" version="1.1" id="mdi-keg" width="24" height="24" viewBox="0 0 24 24"><path d="M5,22V20H6V16H5V14H6V11H5V7H11V3H10V2H11L13,2H14V3H13V7H19V11H18V14H19V16H18V20H19V22H5M17,9A1,1 0 0,0 16,8H14A1,1 0 0,0 13,9A1,1 0 0,0 14,10H16A1,1 0 0,0 17,9Z" /></svg>
